!!!!SEGMENT: Ric2021-Christe_toitus_dominator
!!!id: Ric2021
!!!AGN: Motet
!!!voices: 4
!!!COM: Jean Richafort
!!!OTL: Christe toitus dominator
**kern	**kern	**kern	**kern
*part4	*part3	*part2	*part1
*staff4	*staff3	*staff2	*staff1
*I"Bassus	*I"Tenor	*I"Altus	*I"Superius
*I'B.	*I'T.	*I'A.	*I'S.
*clefF4	*clefGv2	*clefGv2	*clefG2
*k[]	*k[]	*k[]	*k[]
*M2/1	*M2/1	*M2/1	*M2/1
*met(C|)	*met(C|)	*met(C|)	*met(C|)
=1	=1	=1	=1
!!section: Prima pars: Christe toitus
!!!OMD: Prima pars: Christe toitus
0r	0G	0d	0r
=2	=2	=2	=2
0D	1F	1f	0r
.	1A	1f	.
=3	=3	=3	=3
1C	0c	0e	[0g
1E	.	.	.
=4	=4	=4	=4
0G	0B	1d	0g]
.	.	[1d	.
=5	=5	=5	=5
1D	1.A	2d]	1f
.	.	2d	.
[1F	.	1d	1a
.	2A	.	.
=6	=6	=6	=6
2F]	1A	2.c	0cc
2F	.	.	.
.	.	4d	.
[1E	2.G	2e	.
.	.	2f	.
.	4A	.	.
=7	=7	=7	=7
1E]	2B	1g	0b
.	2c	.	.
[1D	2.d	[1f	.
.	4c	.	.
=8	=8	=8	=8
1D]	2d	2f]	1.a
.	2A	4e	.
.	.	4d	.
1C	[1c	1e	.
.	.	.	2g
=9	=9	=9	=9
1F	1c]	1f	1a
[1G	1B	[1d	1b
=10	=10	=10	=10
2G]	0G	1d]	2b
2F	.	.	4a
.	.	.	4g
1E	.	1c	[1g
=11	=11	=11	=11
0D	0A	[0d	1g]
.	.	.	1f#i
=12	=12	=12	=12
1r	1G	0d]	0g
1G	2r	.	.
.	2G	.	.
=13	=13	=13	=13
2G	2d	1g	0r
2F	2d	.	.
1E	1c	2g	.
.	.	2g	.
=14	=14	=14	=14
0D	2.d	1f	1dd
.	4e	.	.
.	4f	1d	2dd
.	4e	.	.
.	[2f	.	2dd
=15	=15	=15	=15
0r	4f]	2r	1cc
.	4e	.	.
.	2c	2e	.
.	2.d	2f	1a
.	.	2d	.
.	4c	.	.
=16	=16	=16	=16
0r	4A	2.e	2.cc
.	4B	.	.
.	2.c	.	.
.	.	4f	4dd
.	.	2g	2ee
.	4B	.	.
.	4A	[2a	[2ff
.	4G	.	.
=17	=17	=17	=17
0r	2.F	4a]	4ff]
.	.	4g	4ee
.	.	2f	1dd
.	4G	.	.
.	1A	2e	.
.	.	[2f	2cc
=18	=18	=18	=18
2r	1r	4f]	0dd
.	.	4e	.
2G	.	2.d	.
2G	2r	.	.
.	.	4c	.
2G	2d	2B	.
=19	=19	=19	=19
2F	2d	0A	0r
2D	2d	.	.
2.F	2d	.	.
.	2A	.	.
4G	.	.	.
=20	=20	=20	=20
2A	2.c	0r	0r
2F	.	.	.
.	4d	.	.
2G	2e	.	.
[2A	2f	.	.
=21	=21	=21	=21
2A]	4e	2r	0r
.	4d	.	.
4G	1d	2g	.
4F	.	.	.
1E	.	2g	.
.	2c#i	2g	.
=22	=22	=22	=22
0D	0d	2f	2r
.	.	2d	2dd
.	.	2.f	2dd
.	.	.	2dd
.	.	4g	.
=23	=23	=23	=23
0r	1r	2.a	1cc
.	.	4g	.
.	2r	4f	[1a
.	.	4e	.
.	2d	[2f	.
=24	=24	=24	=24
1r	2d	2f]	1a]
.	2d	4e	.
.	.	4d	.
2.A	1c	2e	2.cc
.	.	2A	.
4B	.	.	4dd
=25	=25	=25	=25
2c	1A	0a	2ee
2F	.	.	2.ff
2.A	2.c	.	.
.	.	.	4ee
.	.	.	[2ee
4B	4d	.	.
=26	=26	=26	=26
2c	2e	0a	4ee]
.	.	.	4dd
2d	2f	.	1dd
1A	1e	.	.
.	.	.	2cc#i
=27	=27	=27	=27
1D	0d	1f	0dd
2r	.	1r	.
[2G	.	.	.
=28	=28	=28	=28
2G]	0r	1d	0r
2F	.	.	.
2A	.	2c	.
[2c	.	2e	.
=29	=29	=29	=29
2c]	0r	1g	0r
2B	.	.	.
2.A	.	2f	.
.	.	[2e	.
4G	.	.	.
=30	=30	=30	=30
2F	2r	2e]	0r
2G	1G	2d	.
2E	.	2c	.
[2F	2F	2A	.
=31	=31	=31	=31
2F]	1A	2.c	1r
4E	.	.	.
4D	.	4d	.
1C	1c	2.e	2r
.	.	.	[2g
.	.	4c	.
=32	=32	=32	=32
1r	2B	4d	2g]
.	.	4e	.
.	1d	1f	2f
2.F	.	.	1a
.	4c	4e	.
4F	4B	4d	.
=33	=33	=33	=33
2F	1A	1c	1cc
2F	.	.	.
1G	2.d	1r	1b
.	4e	.	.
=34	=34	=34	=34
1D	1.f	2.d	2.a
.	.	4e	4g
1r	.	2f	2a
.	2e	2g	[2b
=35	=35	=35	=35
0r	2d	4f	2b]
.	.	4d	.
.	4c	1g	4a
.	4B	.	4g
.	2c	.	1a
.	2d	2f	.
=36	=36	=36	=36
2r	1G	2e	[0g
2G	.	2d	.
2.E	2r	1e	.
.	[2c	.	.
4F	.	.	.
=37	=37	=37	=37
1G	2c]	2r	1g]
.	2B	2d	.
1C	2G	4c	2r
.	.	4B	.
.	[2c	[2e	2g
=38	=38	=38	=38
2r	4c]	4e]	4e
.	4B	4d	4f
2G	4B	4d	4g
.	4A	4c	4a
2E	1c	2e	2g
2F	.	2A	[2a
=39	=39	=39	=39
1G	2B	[0d	4a]
.	.	.	4g
.	4A	.	1g
.	4G	.	.
1D	1A	.	.
.	.	.	2f#i
=40	=40	=40	=40
0G	2r	1d]	0g
.	2G	.	.
.	4G	2r	.
.	4A	.	.
.	4B	2G	.
.	4c	.	.
=41	=41	=41	=41
0r	2d	4G	2r
.	.	4A	.
.	4G	4B	1g
.	4A	4c	.
.	4B	4d	.
.	4c	4e	.
.	[2d	4f	2f
.	.	4g	.
=42	=42	=42	=42
0r	2d]	4f	1a
.	.	4d	.
.	4c	1g	.
.	4B	.	.
.	1A	.	1cc
.	.	2f#i	.
=43	=43	=43	=43
2r	0G	0g	2.b
2G	.	.	.
.	.	.	4a
2.E	.	.	4b
.	.	.	4g
.	.	.	[2cc
4F	.	.	.
=44	=44	=44	=44
1G	1r	2.g	2cc]
.	.	.	4b
.	.	4g	4a
[1G	2.d	2g	[1b
.	.	2g	.
.	4c	.	.
=45	=45	=45	=45
1G]	2d	1g	1b]
.	2e	.	.
1r	1f	2a	[1a
.	.	[2f	.
=46	=46	=46	=46
1r	0c	2f]	2a]
.	.	4e	2g
.	.	4d	.
2.A	.	1e	2.a
4G	.	.	4b
=47	=47	=47	=47
2.A	2r	1c	1a
.	2f	.	.
4B	.	.	.
1c	2f	2r	1g
.	2e	2g	.
=48	=48	=48	=48
0G	4d	2g	2r
.	4c	.	.
.	4B	2g	2dd
.	4A	.	.
.	2.B-X	2.d	2dd
.	.	.	2dd
.	4A	4e	.
=49	=49	=49	=49
0r	2F	4f	1cc
.	.	4g	.
.	2.f	2.a	.
.	.	.	[1a
.	4e	4g	.
.	2d	2f	.
=50	=50	=50	=50
1r	2c	4e	1a]
.	.	4d	.
.	2d	2f	.
[1c	1A	4e	2.cc
.	.	4d	.
.	.	4c	.
.	.	4B	4dd
=51	=51	=51	=51
1c]	2r	2A	2.ee
.	2A	1a	.
.	.	.	4dd
2A	2c	.	2ff
2c	2c	2a	[2ee
=52	=52	=52	=52
1B	1d	2f	4ee]
.	.	.	4dd
.	.	2g	1dd
1A	1e	1a	.
.	.	.	2cc#i
=53	=53	=53	=53
1r	0d	1f	0dd
2.G	.	2r	.
.	.	2d	.
4F	.	.	.
=54	=54	=54	=54
2E	2r	2e	0r
2F	2d	2d	.
1G	2e	2B	.
.	2d	[2d	.
=55	=55	=55	=55
1G	2B	4d]	1r
.	.	4c	.
.	2.d	4B	.
.	.	4A	.
1G	.	2G	2r
.	4c	.	.
.	4B	[2e	[2g
.	4A	.	.
=56	=56	=56	=56
2E	2G	2e]	2g]
2F	2A	4d	2f
.	.	4c	.
1D	1F	1d	1a
=57	=57	=57	=57
0C	1G	2e	0cc
.	.	2g	.
.	2r	2g	.
.	2c	2g	.
=58	=58	=58	=58
2G	2d	2.g	1b
2G	1e	.	.
.	.	4f	.
1A	.	4e	2.a
.	.	4d	.
.	2f	[2c	.
.	.	.	4g
=59	=59	=59	=59
2F	1d	2c]	2a
2G	.	2B	2b
1A	1c	2c	1a
.	.	[2f	.
=60	=60	=60	=60
0c	1r	2f]	1g
.	.	4e	.
.	.	4d	.
.	2r	1e	1r
.	2e	.	.
=61	=61	=61	=61
2A	2e	1r	2r
2B	2d	.	2g
1A	1c	2r	2.e
.	.	2e	.
.	.	.	4f
=62	=62	=62	=62
1G	1B	2e	[0gl
.	.	2d	.
2r	1e	1c	.
2C	.	.	.
=63	=63	=63	=63
2.E	2r	1B	0g_
.	2e	.	.
4F	.	.	.
1G	2e	2r	.
.	2d	2g	.
=64	=64	=64	=64
0C	1.c	2.g	0g_
.	.	4f	.
.	.	1e	.
.	4B	.	.
.	4A	.	.
=65	=65	=65	=65
0Gl	0Bl	0dl	0g]
=66||	=66||	=66||	=66||
!!section: Secunda pars: Christe qui victa
!!!OMD: Secunda pars: Christe qui victa
0r	1G	0r	0r
.	[1d	.	.
=67	=67	=67	=67
0G	2d]	1G	0r
.	2c	.	.
.	1B	[1d	.
=68	=68	=68	=68
1F	1A	2d]	0r
.	.	2d	.
1A	1r	1c	.
=69	=69	=69	=69
2.c	0r	2.A	0r
4B	.	4B	.
2A	.	4c	.
.	.	4d	.
[2G	.	[2e	.
=70	=70	=70	=70
4G]	1r	4e]	0g
4F	.	4d	.
4E	.	2.d	.
4D	.	.	.
1E	1G	.	.
.	.	4c	.
.	.	4c	.
.	.	8BL	.
.	.	8AJ	.
=71	=71	=71	=71
0D	1.d	1B	1f
.	.	[1A	1a
.	2d	.	.
=72	=72	=72	=72
0r	2c	1A]	0cc
.	2A	.	.
.	2.c	1r	.
.	4d	.	.
=73	=73	=73	=73
1r	2e	1r	1b
.	2d	.	.
[1D	[1f	2r	[1a
.	.	[2d	.
=74	=74	=74	=74
2D]	2f]	4d]	2a]
.	.	4c	.
2E	2e	2B	2g
2F	2c	2A	2a
2D	[2d	2f	[2b
=75	=75	=75	=75
1G	4d]	2d	4b]
.	4c	.	4a
.	2B	2e	1g
1D	1A	4d	.
.	.	4c	.
.	.	4B	2f#i
.	.	4A	.
=76	=76	=76	=76
2r	0G	2B	[0g
2d	.	2G	.
2d	.	2r	.
2d	.	2d	.
=77	=77	=77	=77
1B	2r	2d	0g]
.	2d	2d	.
2G	2d	1B	.
2G	2d	.	.
=78	=78	=78	=78
4A	1c	4A	0r
4G	.	4B	.
4A	.	4c	.
4B	.	4d	.
2c	1A	2e	.
[2A	.	[2f	.
=79	=79	=79	=79
2A]	2.c	2f]	0r
4G	.	4e	.
4F	4d	4d	.
2E	2e	2c	.
2D	[2f	2d	.
=80	=80	=80	=80
2F	4f]	2r	0r
.	4e	.	.
2G	1d	2g	.
1E	.	2g	.
.	2c#i	2g	.
=81	=81	=81	=81
0D	1d	2f	2r
.	.	2d	2dd
.	2r	2.f	2dd
.	[2A	.	2dd
.	.	4g	.
=82	=82	=82	=82
0r	4A]	1a	2cc
.	4B	.	.
.	4c	.	2a
.	4d	.	.
.	2e	2g	1cc
.	[2f	[2a	.
=83	=83	=83	=83
0r	2f]	2a]	2dd
.	4e	4g	2.ee
.	4d	4f	.
.	2c	2e	.
.	.	.	4dd
.	[2d	2d	[2ff
=84	=84	=84	=84
0r	2d]	2f	4ff]
.	.	.	4ee
.	2G	2g	1dd
.	1A	1e	.
.	.	.	2cc#i
=85	=85	=85	=85
2r	2r	1d	1dd
1G	2d	.	.
.	2e	2r	1r
2F	[2f	2d	.
=86	=86	=86	=86
1A	4f]	2d	0r
.	4e	.	.
.	8fL	2c	.
.	8e	.	.
.	8d	.	.
.	8cJ	.	.
2G	2B	1e	.
[2c	2c	.	.
=87	=87	=87	=87
2c]	1G	2d	2r
2B	.	2.e	1g
2c	2r	.	.
.	.	4d	.
[2F	2c	4c	2f
.	.	4B	.
=88	=88	=88	=88
4F]	2d	2A	1a
4E	.	.	.
4F	2.f	1a	.
4D	.	.	.
1A	.	.	1cc
.	4e	.	.
.	4c	2f	.
.	4d	.	.
=89	=89	=89	=89
0G	2e	2.g	0b
.	2d	.	.
.	.	4f	.
.	2B	2d	.
.	[2d	2g	.
=90	=90	=90	=90
0r	2d]	2f	2.a
.	4c	2.e	.
.	4B	.	4g
.	2A	.	2a
.	.	4d	.
.	2G	[2g	2b
=91	=91	=91	=91
2r	1d	2g]	1a
2D	.	2f#i	.
2E	1G	2g	[1g
2C	.	[2e	.
=92	=92	=92	=92
2.E	1r	4e]	0g_
.	.	4d	.
.	.	2c	.
4F	.	.	.
4G	2.d	4B	.
4F	.	4A	.
4G	.	2d	.
4A	4c	.	.
=93	=93	=93	=93
4B	2d	0G	1g]
4G	.	.	.
1c	2e	.	.
.	1d	.	1g
2B	.	.	.
=94	=94	=94	=94
1c	1c	1r	1.e
1C	[1c	[1g	.
.	.	.	2f
=95	=95	=95	=95
1E	1c]	1g]	1g
1F	1A	1f	[1a
=96	=96	=96	=96
0G	1B	1e	2a]
.	.	.	2g
.	1G	[1d	1g
=97	=97	=97	=97
0D	0A	2d]	2g
.	.	4c	4f#i
.	.	4B	4e
.	.	1A	1f#i
=98	=98	=98	=98
1r	0G	1B	[0g
1G	.	1r	.
=99	=99	=99	=99
2G	1r	1G	0g]
2A	.	.	.
2B	[1G	2G	.
2c	.	2A	.
=100	=100	=100	=100
1d	1G]	2B	0r
.	.	2c	.
1D	1F	[1d	.
=101	=101	=101	=101
0F	0A	2d]	0r
.	.	2c	.
.	.	1f	.
=102	=102	=102	=102
1C	0c	0e	0r
1C	.	.	.
=103	=103	=103	=103
1.G	0B	0d	0r
2D	.	.	.
=104	=104	=104	=104
2.F	1.A	1d	0r
4G	.	.	.
1E	.	1c	.
.	2G	.	.
=105	=105	=105	=105
[0D	2.A	2.f	0r
.	4G	4e	.
.	4A	4d	.
.	4F	4c	.
.	2B-i	[2d	.
=106	=106	=106	=106
0D]	2A	4d]	0dd
.	.	4c	.
.	1G	2B	.
.	.	1A	.
.	2F#i	.	.
=107	=107	=107	=107
2r	1G	0G	1dd
2G	.	.	.
2B	2r	.	1dd
2B	2d	.	.
=108	=108	=108	=108
1A	2e	1r	1cc
.	2.f	.	.
1D	.	2r	[1a
.	4e	.	.
.	2d	2d	.
=109	=109	=109	=109
0r	2c	2e	1a]
.	2d	1f	.
.	1A	.	2.cc
.	.	4e	.
.	.	4d	4dd
=110	=110	=110	=110
0r	2r	2c	2ee
.	2d	2d	2ff
.	2e	2A	4ee
.	.	.	4dd
.	[2f	2a	4cc
.	.	.	4b
=111	=111	=111	=111
0r	4f]	2f	2a
.	4e	.	.
.	2d	2.a	2ff
.	2c	.	2ee
.	.	4g	.
.	2d	4f	[2ff
.	.	4e	.
=112	=112	=112	=112
1r	2B	2d	4ff]
.	.	.	4ee
.	2d	2f	1dd
2r	1A	1e	.
2A	.	.	2cc#i
=113	=113	=113	=113
2B	1d	1d	0dd
2G	.	.	.
1B	2r	2r	.
.	[2G	2d	.
=114	=114	=114	=114
2.A	2G]	2e	0r
.	2F	2c	.
4G	.	.	.
4F	1A	[1f	.
4E	.	.	.
[2F	.	.	.
=115	=115	=115	=115
2F]	0c	1f]	0r
4E	.	.	.
4D	.	.	.
1C	.	1e	.
=116	=116	=116	=116
2.G	1B	2.d	0r
4G	.	4c	.
2F	2.A	2d	.
2E	.	2e	.
.	4G	.	.
=117	=117	=117	=117
1D	2A	2f	1r
.	2B	1g	.
1D	1A	.	2r
.	.	2f#i	2a
=118	=118	=118	=118
2r	1G	1g	2b
2G	.	.	2.dd
2F	2r	2r	.
.	.	.	4cc
[2G	2G	2d	4b
.	.	.	4a
=119	=119	=119	=119
4G]	2.E	2e	2g
4F	.	.	.
4E	.	1g	2cc
4D	4F	.	.
2E	2G	.	2b
2F	2A	4f	[2a
.	.	4e	.
=120	=120	=120	=120
2G	2B	2d	4a]
.	.	.	4g
2C	2c	2e	1g
1D	1A	[1d	.
.	.	.	2f#i
=121	=121	=121	=121
1r	1G	2d]	0g
.	.	2c	.
[1G	1r	2.B	.
.	.	4A	.
=122	=122	=122	=122
1G]	0d	0B	1r
1G	.	.	[1g
=123	=123	=123	=123
0B	1d	1r	1g]
.	1d	1d	1f
=124	=124	=124	=124
0A	0c	1e	1a
.	.	1f	[1cc
=125	=125	=125	=125
0G	0d	0g	1cc]
.	.	.	1b
=126	=126	=126	=126
2.F	2.A	1c	2.a
4G	4B	.	4g
2F	2c	2f	2a
2D	[2d	2f	2b
=127	=127	=127	=127
2F	4d]	2f	2a
.	4c	.	.
2G	2B	2e	1g
1D	1A	1d	.
.	.	.	2f#i
=128	=128	=128	=128
[0G	1G	0d	0g
.	2r	.	.
.	2d	.	.
=129	=129	=129	=129
0G]	2d	2r	2r
.	2d	2g	2dd
.	4d	2g	2dd
.	4c	.	.
.	4d	2b	2dd
.	4e	.	.
=130	=130	=130	=130
0r	2.f	2.a	1cc
.	4e	8gL	.
.	.	8fJ	.
.	2c	2e	[1a
.	[2d	[2f	.
=131	=131	=131	=131
0r	2d]	2f]	1a]
.	4c	4e	.
.	4B	4d	.
.	[1A	4c	2.cc
.	.	4A	.
.	.	[2a	.
.	.	.	4dd
=132	=132	=132	=132
1r	1A]	2a]	2ee
.	.	2a	2ff
2r	1r	2.g	2ee
2G	.	.	[2dd
.	.	8fL	.
.	.	8eJ	.
=133	=133	=133	=133
2G	2r	2d	4dd]
.	.	.	4cc
2G	2d	2d	2b
2F	2d	2.f	4a
.	.	.	4g
2D	2d	.	2a
.	.	4g	.
=134	=134	=134	=134
2.F	2c	4a	2f
.	.	4b-X	.
.	2A	1a	1ff
4G	.	.	.
2A	2.c	.	.
2B-i	.	2g	4ee
.	4d	.	4dd
=135	=135	=135	=135
0A	2e	1a	2cc
.	2f	.	1dd
.	1e	2r	.
.	.	2A	2cc#i
=136	=136	=136	=136
1D	0d	2A	[0dd
.	.	2A	.
2r	.	1B	.
2G	.	.	.
=137	=137	=137	=137
4G	2r	2.G	0dd]
4A	.	.	.
4B	1G	.	.
4c	.	4A	.
2d	.	4B	.
.	.	4c	.
2D	2F	4d	.
.	.	4e	.
=138	=138	=138	=138
4D	0A	2.f	0r
4C	.	.	.
4D	.	.	.
4E	.	4e	.
4F	.	2d	.
4G	.	.	.
[2A	.	[2c	.
=139	=139	=139	=139
4A]	0c	4c]	0r
4G	.	4B	.
1G	.	4A	.
.	.	4G	.
.	.	1A	.
2F#i	.	.	.
=140	=140	=140	=140
1G	1B	4G	2r
.	.	4A	.
.	.	4B	1g
.	.	4c	.
1D	2A	2.d	.
.	[2d	.	2f
.	.	4e	.
=141	=141	=141	=141
0r	2d]	4f	1a
.	.	4d	.
.	4c	1g	.
.	4B	.	.
.	1A	.	[1cc
.	.	2f#i	.
=142	=142	=142	=142
2.G	1r	0g	1cc]
4G	.	.	.
2G	2.d	.	1b
2G	.	.	.
.	4e	.	.
=143	=143	=143	=143
2.F	1.f	2.c	2.a
4E	.	4c	4g
2F	.	2c	2a
2G	[2e	2B	2b
=144	=144	=144	=144
0A	4e]	4c	2a
.	4d	4B	.
.	1d	4A	1g
.	.	4G	.
.	.	1A	.
.	2c	.	2f#i
=145	=145	=145	=145
0G	0d	0B	0g
=146	=146	=146	=146
3%2.G	3%4B	3%4d	3%4g
3F	.	.	.
3%2D	3%2A	3%2d	3%2f
=147	=147	=147	=147
3%2C	3%4c	3%2G	3%2e
3%2F	.	3%2A	3%2.a
3%2G	3%2B	3%2B	.
.	.	.	3g
=148	=148	=148	=148
3%2E	3%2G	3%2c	3%4g
3%4D	3%4A	3%4d	.
.	.	.	3%2f#i
=149	=149	=149	=149
0G	1G	1.d	0g
.	1d	.	.
.	.	2c	.
=150	=150	=150	=150
1.G	2d	2.B	1r
.	2c	.	.
.	.	8AL	.
.	.	8GJ	.
.	2.B	1d	[1g
2F	.	.	.
.	4A	.	.
=151	=151	=151	=151
1E	2G	1r	1g]
.	1c	.	.
1D	.	1d	1f
.	2B	.	.
=152	=152	=152	=152
1C	0c	2e	1e
.	.	1g	.
1F	.	.	[1a
.	.	2f	.
=153	=153	=153	=153
1G	1B	2e	2a]
.	.	1d	2g
1E	1G	.	[1g
.	.	2c#i	.
=154	=154	=154	=154
0D	0A	0d	1g]
.	.	.	1f#i
=155	=155	=155	=155
0Gl	0Gl	0dl	0gl
==	==	==	==
*-	*-	*-	*-
!!!system-decoration: s1,s2,s3,s4
!!!RDF**kern: i = editorial accidental
!!!RDF**kern: l = terminal long
!!!ENC: Max Blistain
!!!END: 2026/01/26
!!!EED: Benjamin Ory
!!!EEV: 2026/02/11
!!!YEC: Copyright 2026 Benjamin Ory, All Rights Reserved
!!!ONB: Translated from MusicXML on 2026/02/11
